web/ui/src/assets/svgs/nav/top/help.svg

<svg height="24" viewBox="0 0 24 24" width="24" xmlns="http://www.w3.org/2000/svg"><g fill="none"><path d="m0 0h24v24h-24z" fill="#000" opacity="0"/><path d="m11.9999922 1.99999219c5.5228437 0 10.0000156 4.47717187 10.0000156 10.00000001 0 5.5228437-4.4771719 10.0000156-10.0000156 10.0000156-5.52282814 0-10.00000001-4.4771953-10.00000001-10.0000156 0-5.52282814 4.47719531-10.00000001 10.00000001-10.00000001zm0 1.5c-4.69440626 0-8.50000001 3.80559375-8.50000001 8.50000001 0 4.6944219 3.80559375 8.5000156 8.50000001 8.5000156 4.6944219 0 8.5000156-3.8055937 8.5000156-8.5000156 0-4.69440626-3.8055937-8.50000001-8.5000156-8.50000001zm.0005937 12.00000001c.5522344 0 .9999141.4476797.9999141.9999141 0 .5522578-.4476563.9999375-.9999141.9999375h-.0006797c-.5522343 0-.999914-.4476797-.999914-.9999375 0-.5522344.4476797-.9999141.999914-.9999141zm2.997-4.43175c-.2672343.5815781-.591539 1.0073437-1.0124297 1.3838672-.0575948.0514301-.116264.1016444-.1759687.1506093l-.336.265875c-.5497734.432375-.7334531.7304766-.7785 1.6450079l-.0087656.2530547-1.4996485-.0330938c.0336563-1.5246328.393375-2.2535859 1.2643594-2.9675391l.3267891-.2579765.1446797-.118875c.021201-.0181033.0421946-.0364483.0629765-.0550313.2727656-.2439844.4716797-.5051484.6495-.892125.6348985-1.38203904-1.4198437-2.68352341-2.896875-1.40198435-.166289.14430469-.2843906.31359375-.363914.50842969-.1269844.31120312-.1480313.66372656-.1034532.97764846l.0136641.0813281-1.45680469.3573516-.0204375-.0960469c-.00813764-.0437352-.01531125-.0876443-.02151562-.1316953-.07875-.5545313-.04251563-1.16170315.19973437-1.75532815.16614844-.40710938.42039844-.77153906.76961719-1.07460937 2.63132815-2.28304688 6.59163285.22546874 5.24299215 3.16113282z" fill="#595959"/></g></svg>

<?xml version="1.0" encoding="UTF-8"?>
<svg width="24px" height="24px" viewBox="0 0 24 24" version="1.1" xmlns="http://www.w3.org/2000/svg" xmlns:xlink="http://www.w3.org/1999/xlink">
    <title>帮助</title>
    <g id="页面-1" stroke="none" stroke-width="1" fill="none" fill-rule="evenodd">
        <g id="系统设计规范" transform="translate(-1275.000000, -5359.000000)" fill-rule="nonzero">
            <g id="nav_icon_halp_default" transform="translate(1275.000000, 5359.000000)">
                <rect id="矩形" fill="#000000" opacity="0" x="0" y="0" width="24" height="24"></rect>
                <path d="M11.9999922,1.99999219 C17.5228359,1.99999219 22.0000078,6.47716406 22.0000078,11.9999922 C22.0000078,17.5228359 17.5228359,22.0000078 11.9999922,22.0000078 C6.47716406,22.0000078 1.99999219,17.5228125 1.99999219,11.9999922 C1.99999219,6.47716406 6.4771875,1.99999219 11.9999922,1.99999219 Z M11.9999922,3.49999219 C7.30558594,3.49999219 3.49999219,7.30558594 3.49999219,11.9999922 C3.49999219,16.6944141 7.30558594,20.5000078 11.9999922,20.5000078 C16.6944141,20.5000078 20.5000078,16.6944141 20.5000078,11.9999922 C20.5000078,7.30558594 16.6944141,3.49999219 11.9999922,3.49999219 Z M12.0005859,15.4999922 C12.5528203,15.4999922 13.0005,15.9476719 13.0005,16.4999063 C13.0005,17.0521641 12.5528437,17.4998438 12.0005859,17.4998438 L11.9999062,17.4998438 C11.4476719,17.4998438 10.9999922,17.0521641 10.9999922,16.4999063 C10.9999922,15.9476719 11.4476719,15.4999922 11.9999062,15.4999922 L12.0005859,15.4999922 Z M14.9975859,11.0682422 C14.7303516,11.6498203 14.4060469,12.0755859 13.9851562,12.4521094 C13.9275614,12.5035395 13.8688922,12.5537538 13.8091875,12.6027187 L13.4731875,12.8685937 C12.9234141,13.3009687 12.7397344,13.5990703 12.6946875,14.5136016 L12.6859219,14.7666563 L11.1862734,14.7335625 C11.2199297,13.2089297 11.5796484,12.4799766 12.4506328,11.7660234 L12.7774219,11.5080469 L12.9221016,11.3891719 C12.9433026,11.3710686 12.9642962,11.3527236 12.9850781,11.3341406 C13.2578437,11.0901562 13.4567578,10.8289922 13.6345781,10.4420156 C14.2694766,9.05997656 12.2147344,7.75849219 10.7377031,9.04003125 C10.5714141,9.18433594 10.4533125,9.353625 10.3737891,9.54846094 C10.2468047,9.85966406 10.2257578,10.2121875 10.2703359,10.5261094 L10.284,10.6074375 L8.82719531,10.9647891 L8.80675781,10.8687422 C8.79862017,10.825007 8.79144656,10.7810979 8.78524219,10.7370469 C8.70649219,10.1825156 8.74272656,9.57534375 8.98497656,8.98171875 C9.151125,8.57460937 9.405375,8.21017969 9.75459375,7.90710938 C12.3859219,5.6240625 16.3462266,8.13257812 14.9975859,11.0682422 Z" id="形状" fill="#595959"></path>
            </g>
        </g>
    </g>
</svg>
